src/pos-icons/text-box-outline.svg

<svg height="24" viewBox="0 0 24 24" width="24" xmlns="http://www.w3.org/2000/svg"><path d="m5 3c-1.11 0-2 .89-2 2v14c0 1.11.89 2 2 2h14c1.11 0 2-.89 2-2v-14c0-1.11-.89-2-2-2zm0 2h14v14h-14zm2 2v2h10v-2zm0 4v2h10v-2zm0 4v2h7v-2z"/></svg>

<?xml version="1.0" encoding="UTF-8"?><!DOCTYPE svg PUBLIC "-//W3C//DTD SVG 1.1//EN" "http://www.w3.org/Graphics/SVG/1.1/DTD/svg11.dtd"><svg xmlns="http://www.w3.org/2000/svg" xmlns:xlink="http://www.w3.org/1999/xlink" version="1.1" id="mdi-text-box-outline" width="24" height="24" viewBox="0 0 24 24"><path d="M5,3C3.89,3 3,3.89 3,5V19C3,20.11 3.89,21 5,21H19C20.11,21 21,20.11 21,19V5C21,3.89 20.11,3 19,3H5M5,5H19V19H5V5M7,7V9H17V7H7M7,11V13H17V11H7M7,15V17H14V15H7Z" /></svg>
